JCH_Inbox/03_PROJECTS/06_PHOTO_NATURE/tech/presets-argus/LrC to-65.xmp
<x:xmpmeta xmlns:x="adobe:ns:meta/" x:xmptk="Adobe XMP Core 7.0">
 <rdf:RDF xmlns:rdf="http://www.w3.org/1999/02/22-rdf-syntax-ns#">
  <rdf:Description rdf:about=""
    xmlns:xmp="http://ns.adobe.com/xap/1.0/"
    xmlns:dc="http://purl.org/dc/elements/1.1/"
    xmlns:lr="http://ns.adobe.com/lightroom/1.0/"
    xmlns:crs="http://ns.adobe.com/camera-raw-settings/1.0/"
    crs:Version="15.5"
    crs:ProcessVersion="11.0"
    crs:PresetType="Normal"
    crs:UUID="518beb1a3ef0455788a6d5b6ac99c494"
    crs:SupportsAmount="False"
    crs:SupportsColor="True"
    crs:SupportsHighDynamicRange="True"
    crs:SupportsNormalDynamicRange="True"
    crs:SupportsSceneReferred="True"
    crs:SupportsOutputReferred="False"
    crs:CameraModelRestriction=""
    crs:Copyright=""
xmp:Rating="0"
    crs:Blacks2012="+15"
    crs:Clarity2012="+22"
    crs:ColorTemperature="5800"
    crs:Contrast2012="+20"
    crs:Exposure2012="+0.25"
    crs:Highlights2012="-40"
    crs:Shadows2012="+45"
    crs:Tint="+4"
    crs:Vibrance="+12"
    crs:Whites2012="-10">
   <dc:title>
    <rdf:Alt>
     <rdf:li xml:lang="x-default">LrC to-65 — Fin Art Cinématique Wildlife</rdf:li>
    </rdf:Alt>
   </dc:title>
  </rdf:Description>
 </rdf:RDF>
</x:xmpmeta>
